media/images/logo.svg

<?xml version="1.0" encoding="UTF-8"?>
<!DOCTYPE svg PUBLIC "-//W3C//DTD SVG 1.1//EN" "http://www.w3.org/Graphics/SVG/1.1/DTD/svg11.dtd">
<svg xmlns="http://www.w3.org/2000/svg" version="1.1" width="1092px" height="288px" style="shape-rendering:geometricPrecision; text-rendering:geometricPrecision; image-rendering:optimizeQuality; fill-rule:evenodd; clip-rule:evenodd" xmlns:xlink="http://www.w3.org/1999/xlink">
<g><path style="opacity:1" fill="#fdfdfd" d="M -0.5,-0.5 C 363.5,-0.5 727.5,-0.5 1091.5,-0.5C 1091.5,69.8333 1091.5,140.167 1091.5,210.5C 1090.83,210.833 1090.17,211.167 1089.5,211.5C 1088.67,210.252 1087.33,209.585 1085.5,209.5C 834.044,193.755 582.378,189.255 330.5,196C 220.751,198.698 111.085,203.198 1.5,209.5C 1.5,210.833 1.5,212.167 1.5,213.5C 0.833333,213.167 0.166667,212.833 -0.5,212.5C -0.5,141.5 -0.5,70.5 -0.5,-0.5 Z"/></g>
<g><path style="opacity:1" fill="#171719" d="M 999.5,109.5 C 984.009,108.504 968.342,108.17 952.5,108.5C 952.5,109.5 952.5,110.5 952.5,111.5C 945.625,125.621 939.625,140.121 934.5,155C 934.495,157.163 935.495,158.663 937.5,159.5C 942.091,161.147 946.757,162.481 951.5,163.5C 951.5,165.5 951.5,167.5 951.5,169.5C 932.885,167.933 914.218,167.266 895.5,167.5C 895.5,165.5 895.5,163.5 895.5,161.5C 902.148,160.755 908.481,158.921 914.5,156C 916,153.833 917.5,151.667 919,149.5C 941.714,101.406 963.881,53.0722 985.5,4.5C 989.734,2.91759 994.068,1.58426 998.5,0.5C 1018.97,52.4142 1039.14,104.414 1059,156.5C 1060.6,160.438 1063.27,163.438 1067,165.5C 1071.62,166.872 1076.12,168.538 1080.5,170.5C 1081.45,172.045 1081.79,173.712 1081.5,175.5C 1059.51,174.234 1037.51,173.234 1015.5,172.5C 1015.5,170.5 1015.5,168.5 1015.5,166.5C 1020.69,165.927 1025.69,164.594 1030.5,162.5C 1031.36,161.264 1032.02,159.931 1032.5,158.5C 1027.42,142.335 1021.76,126.335 1015.5,110.5C 1010.21,109.505 1004.87,109.172 999.5,109.5 Z"/></g>
<g><path style="opacity:1" fill="#171819" d="M 194.5,161.5 C 194.5,163.167 194.5,164.833 194.5,166.5C 190.629,166.185 186.962,166.518 183.5,167.5C 165.48,167.691 147.48,168.358 129.5,169.5C 129.5,167.5 129.5,165.5 129.5,163.5C 134.702,162.711 139.702,161.211 144.5,159C 145.108,157.769 145.441,156.436 145.5,155C 140.856,139.899 135.522,125.066 129.5,110.5C 108.511,109.5 87.5106,109.167 66.5,109.5C 62.4062,121.773 57.5728,133.773 52,145.5C 49.2648,151.203 48.0982,157.203 48.5,163.5C 53.7734,164.818 59.1067,165.818 64.5,166.5C 64.5,168.5 64.5,170.5 64.5,172.5C 46.1711,173.42 27.8377,174.42 9.5,175.5C 9.5,173.5 9.5,171.5 9.5,169.5C 17.3649,168.163 24.1982,164.83 30,159.5C 52.6338,107.249 75.4671,55.2491 98.5,3.5C 103.473,2.83626 108.473,2.50292 113.5,2.5C 131.579,51.5663 150.746,100.233 171,148.5C 172.618,152.074 174.951,155.074 178,157.5C 183.357,159.405 188.857,160.738 194.5,161.5 Z"/></g>
<g><path style="opacity:1" fill="#161718" d="M 202.5,10.5 C 215.184,11.0014 227.851,11.8347 240.5,13C 275.408,51.2363 310.908,88.7363 347,125.5C 347.667,92.1667 347.667,58.8333 347,25.5C 340.928,23.5322 334.761,21.8655 328.5,20.5C 328.5,18.8333 328.5,17.1667 328.5,15.5C 346.155,16.283 363.822,16.6164 381.5,16.5C 381.5,18.1667 381.5,19.8333 381.5,21.5C 375.079,22.3132 368.912,23.9799 363,26.5C 362.5,71.8321 362.333,117.165 362.5,162.5C 358.746,162.496 355.079,162.663 351.5,163C 312.212,124.05 274.046,84.2165 237,43.5C 236.333,80.1667 236.333,116.833 237,153.5C 238.008,155.259 239.508,156.426 241.5,157C 246.18,157.837 250.846,158.671 255.5,159.5C 255.5,161.167 255.5,162.833 255.5,164.5C 237.83,165.083 220.163,165.75 202.5,166.5C 202.215,164.712 202.548,163.045 203.5,161.5C 208.161,160.001 212.828,158.501 217.5,157C 218.931,156.535 220.097,155.701 221,154.5C 221.667,110.167 221.667,65.8333 221,21.5C 215.157,19.6076 209.324,17.6076 203.5,15.5C 202.548,13.9547 202.215,12.288 202.5,10.5 Z"/></g>
<g><path style="opacity:1" fill="#161718" d="M 871.5,10.5 C 876.844,10.334 882.177,10.5006 887.5,11C 884.737,22.402 882.237,33.902 880,45.5C 878.186,46.7596 876.353,46.7596 874.5,45.5C 871.343,37.7014 869.01,29.7014 867.5,21.5C 847.51,22.4227 827.51,23.0894 807.5,23.5C 807.5,43.1667 807.5,62.8333 807.5,82.5C 822.225,82.9321 836.892,82.4321 851.5,81C 854.175,76.1478 856.175,70.9812 857.5,65.5C 859.743,64.5258 862.076,64.1924 864.5,64.5C 864.5,79.5 864.5,94.5 864.5,109.5C 862.076,109.808 859.743,109.474 857.5,108.5C 855.901,103.535 854.401,98.5353 853,93.5C 852.25,92.8742 851.416,92.3742 850.5,92C 836.171,91.5001 821.837,91.3334 807.5,91.5C 807.477,112.507 807.81,133.507 808.5,154.5C 829.175,154.44 849.841,154.773 870.5,155.5C 874.355,146.125 879.022,137.125 884.5,128.5C 886.396,127.534 888.396,127.201 890.5,127.5C 890.008,140.228 889.008,152.895 887.5,165.5C 884.833,165.833 882.167,166.167 879.5,166.5C 840.854,164.701 802.187,163.701 763.5,163.5C 763.261,161.533 763.594,159.699 764.5,158C 768.833,157 773.167,156 777.5,155C 779.329,154.727 780.829,153.893 782,152.5C 782.667,110.167 782.667,67.8333 782,25.5C 776.162,22.8942 769.996,21.2276 763.5,20.5C 763.5,18.8333 763.5,17.1667 763.5,15.5C 799.695,14.6851 835.695,13.0185 871.5,10.5 Z"/></g>
<g><path style="opacity:1" fill="#161719" d="M 401.5,17.5 C 433.835,17.3334 466.168,17.5 498.5,18C 560.558,23.3127 583.058,55.8127 566,115.5C 561.062,126.435 553.895,135.601 544.5,143C 527.918,154.068 509.585,160.068 489.5,161C 460.169,161.5 430.835,161.667 401.5,161.5C 401.5,159.833 401.5,158.167 401.5,156.5C 407.921,155.687 414.088,154.02 420,151.5C 420.667,110.167 420.667,68.8333 420,27.5C 414.388,25.0745 408.555,23.2411 402.5,22C 401.62,20.6439 401.286,19.1439 401.5,17.5 Z"/></g>
<g><path style="opacity:1" fill="#fefefe" d="M 447.5,26.5 C 463.536,26.1342 479.536,26.6342 495.5,28C 529.206,33.7161 545.206,53.7161 543.5,88C 544.89,125.259 527.224,146.593 490.5,152C 476.183,153.802 461.849,153.969 447.5,152.5C 446.167,110.5 446.167,68.5 447.5,26.5 Z"/></g>
<g><path style="opacity:1" fill="#656668" d="M 447.5,26.5 C 446.167,68.5 446.167,110.5 447.5,152.5C 446.167,131.844 445.5,110.844 445.5,89.5C 445.5,68.1559 446.167,47.1559 447.5,26.5 Z"/></g>
<g><path style="opacity:1" fill="#fbfbfb" d="M 97.5,98.5 C 89.2814,98.1541 81.2814,97.1541 73.5,95.5C 81.3623,74.7808 90.0289,54.4475 99.5,34.5C 108.029,55.4206 116.363,76.4206 124.5,97.5C 115.525,98.4982 106.525,98.8315 97.5,98.5 Z"/></g>
<g><path style="opacity:1" fill="#fbfbfb" d="M 1009.5,95.5 C 1002.39,97.1524 995.057,98.1524 987.5,98.5C 977.81,98.8318 968.144,98.4984 958.5,97.5C 967.38,76.0706 976.546,54.7373 986,33.5C 994.128,54.0512 1001.96,74.7178 1009.5,95.5 Z"/></g>
<g><path style="opacity:1" fill="#161719" d="M 663.5,16.5 C 680.84,15.5981 697.507,18.4315 713.5,25C 727.276,35.486 731.109,48.986 725,65.5C 721.882,70.2861 718.382,74.7861 714.5,79C 706.002,84.2492 697.002,88.4158 687.5,91.5C 701.475,109.976 715.642,128.309 730,146.5C 736.641,153.571 744.808,157.571 754.5,158.5C 754.5,160.167 754.5,161.833 754.5,163.5C 743.813,164.954 733.147,164.788 722.5,163C 719.007,162.058 715.674,160.725 712.5,159C 706.333,154.167 700.833,148.667 696,142.5C 685.688,126.711 674.521,111.544 662.5,97C 661.167,96.3333 659.833,95.6667 658.5,95C 653.177,94.5006 647.844,94.334 642.5,94.5C 642.333,113.17 642.5,131.836 643,150.5C 643.374,151.416 643.874,152.25 644.5,153C 649.773,154.488 655.107,155.654 660.5,156.5C 660.5,158.167 660.5,159.833 660.5,161.5C 639.84,160.842 619.173,160.508 598.5,160.5C 598.286,158.856 598.62,157.356 599.5,156C 604.838,154.666 610.172,153.333 615.5,152C 616.191,150.933 616.691,149.766 617,148.5C 617.167,129 617.333,109.5 617.5,90C 617.644,69.1179 617.144,48.2846 616,27.5C 610.594,25.7728 605.094,24.2728 599.5,23C 597.893,21.951 597.227,20.451 597.5,18.5C 619.682,18.6065 641.682,17.9398 663.5,16.5 Z"/></g>
<g><path style="opacity:1" fill="#fdfdfd" d="M 655.5,25.5 C 667.361,25.0641 678.695,27.2308 689.5,32C 695.134,36.4309 698.301,42.2642 699,49.5C 700.976,72.8657 690.143,85.0323 666.5,86C 658.507,86.4997 650.507,86.6664 642.5,86.5C 642.5,66.5 642.5,46.5 642.5,26.5C 647.032,26.8182 651.366,26.4849 655.5,25.5 Z"/></g>
<g><path style="opacity:1" fill="#a5a5a7" d="M 73.5,95.5 C 81.2814,97.1541 89.2814,98.1541 97.5,98.5C 89.1667,98.5 80.8333,98.5 72.5,98.5C 72.2627,97.209 72.596,96.209 73.5,95.5 Z"/></g>
<g><path style="opacity:1" fill="#a5a5a7" d="M 1009.5,95.5 C 1010.4,96.209 1010.74,97.209 1010.5,98.5C 1002.83,98.5 995.167,98.5 987.5,98.5C 995.057,98.1524 1002.39,97.1524 1009.5,95.5 Z"/></g>
<g><path style="opacity:1" fill="#777878" d="M 999.5,109.5 C 983.593,108.873 967.926,109.54 952.5,111.5C 952.5,110.5 952.5,109.5 952.5,108.5C 968.342,108.17 984.009,108.504 999.5,109.5 Z"/></g>
<g><path style="opacity:1" fill="#929293" d="M 194.5,161.5 C 195.461,163.265 195.795,165.265 195.5,167.5C 191.5,167.5 187.5,167.5 183.5,167.5C 186.962,166.518 190.629,166.185 194.5,166.5C 194.5,164.833 194.5,163.167 194.5,161.5 Z"/></g>
<g><path style="opacity:1" fill="#17181a" d="M 443.5,172.5 C 659.034,170.232 874.368,175.565 1089.5,188.5C 1089.5,190.5 1089.5,192.5 1089.5,194.5C 838.238,185.473 586.905,182.973 335.5,187C 230.653,188.942 125.82,191.442 21,194.5C 14.8333,194.167 8.66667,193.833 2.5,193.5C 1.69063,191.929 1.35729,190.262 1.5,188.5C 148.889,180.446 296.223,175.113 443.5,172.5 Z"/></g>
<g><path style="opacity:1" fill="#18191a" d="M 1089.5,211.5 C 1089.5,212.833 1089.5,214.167 1089.5,215.5C 836.238,206.52 582.904,204.02 329.5,208C 225.653,209.937 121.82,212.437 18,215.5C 12.2559,215.451 6.7559,214.784 1.5,213.5C 1.5,212.167 1.5,210.833 1.5,209.5C 111.085,203.198 220.751,198.698 330.5,196C 582.378,189.255 834.044,193.755 1085.5,209.5C 1087.33,209.585 1088.67,210.252 1089.5,211.5 Z"/></g>
<g><path style="opacity:1" fill="#fefefe" d="M 1089.5,211.5 C 1090.17,211.167 1090.83,210.833 1091.5,210.5C 1091.5,236.167 1091.5,261.833 1091.5,287.5C 727.5,287.5 363.5,287.5 -0.5,287.5C -0.5,262.5 -0.5,237.5 -0.5,212.5C 0.166667,212.833 0.833333,213.167 1.5,213.5C 6.7559,214.784 12.2559,215.451 18,215.5C 121.82,212.437 225.653,209.937 329.5,208C 582.904,204.02 836.238,206.52 1089.5,215.5C 1089.5,214.167 1089.5,212.833 1089.5,211.5 Z"/></g>
<g><path style="opacity:1" fill="#171719" d="M 389.5,228.5 C 397.86,228.169 406.193,228.502 414.5,229.5C 412.696,230.768 410.696,231.435 408.5,231.5C 408.5,238.5 408.5,245.5 408.5,252.5C 416.5,252.5 424.5,252.5 432.5,252.5C 432.5,245.5 432.5,238.5 432.5,231.5C 430.304,231.435 428.304,230.768 426.5,229.5C 434.833,228.167 443.167,228.167 451.5,229.5C 449.392,230.944 447.059,231.61 444.5,231.5C 444.5,248.167 444.5,264.833 444.5,281.5C 447.059,281.39 449.392,282.056 451.5,283.5C 443.167,284.833 434.833,284.833 426.5,283.5C 428.304,282.232 430.304,281.565 432.5,281.5C 432.5,273.5 432.5,265.5 432.5,257.5C 424.5,257.5 416.5,257.5 408.5,257.5C 408.5,265.5 408.5,273.5 408.5,281.5C 410.696,281.565 412.696,282.232 414.5,283.5C 406.167,284.833 397.833,284.833 389.5,283.5C 391.51,281.829 393.843,281.162 396.5,281.5C 396.5,264.833 396.5,248.167 396.5,231.5C 393.423,231.821 391.09,230.821 389.5,228.5 Z"/></g>
<g><path style="opacity:1" fill="#161718" d="M 538.5,228.5 C 555.167,228.5 571.833,228.5 588.5,228.5C 587.833,233.5 587.167,238.5 586.5,243.5C 585.5,243.5 584.5,243.5 583.5,243.5C 582.992,239.803 582.326,236.136 581.5,232.5C 577.5,232.5 573.5,232.5 569.5,232.5C 569.333,248.503 569.5,264.503 570,280.5C 572.456,281.574 574.956,282.574 577.5,283.5C 568.5,284.833 559.5,284.833 550.5,283.5C 552.632,282.402 554.798,281.402 557,280.5C 557.5,264.503 557.667,248.503 557.5,232.5C 553.445,232.176 549.445,232.509 545.5,233.5C 544.091,236.727 543.091,240.06 542.5,243.5C 541.5,243.5 540.5,243.5 539.5,243.5C 539.663,238.453 539.329,233.453 538.5,228.5 Z"/></g>
<g><path style="opacity:1" fill="#171718" d="M 600.5,228.5 C 614.5,228.5 628.5,228.5 642.5,228.5C 642.044,233.462 640.711,238.129 638.5,242.5C 636.881,239.358 635.881,236.024 635.5,232.5C 630.167,232.5 624.833,232.5 619.5,232.5C 619.5,239.5 619.5,246.5 619.5,253.5C 623.167,253.5 626.833,253.5 630.5,253.5C 630.833,251.5 631.167,249.5 631.5,247.5C 632.5,247.5 633.5,247.5 634.5,247.5C 634.5,253.167 634.5,258.833 634.5,264.5C 633.5,264.5 632.5,264.5 631.5,264.5C 631.326,262.139 630.993,259.806 630.5,257.5C 626.833,257.5 623.167,257.5 619.5,257.5C 619.5,265.167 619.5,272.833 619.5,280.5C 624.844,280.666 630.177,280.499 635.5,280C 637.294,276.912 638.961,273.746 640.5,270.5C 641.325,269.614 642.325,269.281 643.5,269.5C 642.836,274.473 642.503,279.473 642.5,284.5C 628.484,284.833 614.484,284.499 600.5,283.5C 602.632,282.402 604.798,281.402 607,280.5C 607.667,264.5 607.667,248.5 607,232.5C 604.286,231.794 602.119,230.461 600.5,228.5 Z"/></g>
<g><path style="opacity:1" fill="#1c1c1c" d="M 658.5,228.5 C 666.86,228.169 675.193,228.502 683.5,229.5C 681.696,230.768 679.696,231.435 677.5,231.5C 677.5,247.833 677.5,264.167 677.5,280.5C 682.511,280.666 687.511,280.499 692.5,280C 694.458,275.913 696.791,272.08 699.5,268.5C 700.495,273.792 700.828,279.125 700.5,284.5C 686.484,284.833 672.484,284.499 658.5,283.5C 660.304,282.232 662.304,281.565 664.5,281.5C 664.5,264.833 664.5,248.167 664.5,231.5C 661.784,231.614 659.784,230.614 658.5,228.5 Z"/></g>
<g><path style="opacity:1" fill="#19191a" d="M 492.5,226.5 C 516.884,225.052 528.384,236.385 527,260.5C 523.655,277.668 513.155,286.334 495.5,286.5C 474.066,284.211 464.566,272.211 467,250.5C 469.919,236.411 478.419,228.411 492.5,226.5 Z"/></g>
<g><path style="opacity:1" fill="#fcfcfc" d="M 492.5,230.5 C 499.779,229.64 505.612,231.973 510,237.5C 514.256,249.702 514.589,262.035 511,274.5C 504.172,283.332 496.005,284.666 486.5,278.5C 480.438,266.791 478.938,254.458 482,241.5C 483.684,235.984 487.184,232.318 492.5,230.5 Z"/></g>
</svg>

<?xml version="1.0" encoding="utf-8"?>
<!-- Generator: Adobe Illustrator 24.1.1, SVG Export Plug-In . SVG Version: 6.00 Build 0)  -->
<svg version="1.1" id="Capa_1" xmlns="http://www.w3.org/2000/svg" xmlns:xlink="http://www.w3.org/1999/xlink" x="0px" y="0px"
	 viewBox="0 0 1092 288" style="enable-background:new 0 0 1092 288;" xml:space="preserve">
<style type="text/css">
	.st0{fill-rule:evenodd;clip-rule:evenodd;fill:#FFFFFF;}
</style>
<g>
	<path class="st0" d="M202.5,10.5c12.7,0.5,25.4,1.3,38,2.5c34.9,38.2,70.4,75.7,106.5,112.5c0.7-33.3,0.7-66.7,0-100
		c-6.1-2-12.2-3.6-18.5-5c0-1.7,0-3.3,0-5c17.7,0.8,35.3,1.1,53,1c0,1.7,0,3.3,0,5c-6.4,0.8-12.6,2.5-18.5,5
		c-0.5,45.3-0.7,90.7-0.5,136c-3.8,0-7.4,0.2-11,0.5C312.2,124.1,274,84.2,237,43.5c-0.7,36.7-0.7,73.3,0,110c1,1.8,2.5,2.9,4.5,3.5
		c4.7,0.8,9.3,1.7,14,2.5c0,1.7,0,3.3,0,5c-17.7,0.6-35.3,1.3-53,2c-0.3-1.8,0-3.5,1-5c4.7-1.5,9.3-3,14-4.5
		c1.4-0.5,2.6-1.3,3.5-2.5c0.7-44.3,0.7-88.7,0-133c-5.8-1.9-11.7-3.9-17.5-6C202.5,14,202.2,12.3,202.5,10.5z"/>
</g>
<g>
	<path class="st0" d="M871.5,10.5c5.3-0.2,10.7,0,16,0.5c-2.8,11.4-5.3,22.9-7.5,34.5c-1.8,1.3-3.6,1.3-5.5,0
		c-3.2-7.8-5.5-15.8-7-24c-20,0.9-40,1.6-60,2c0,19.7,0,39.3,0,59c14.7,0.4,29.4-0.1,44-1.5c2.7-4.9,4.7-10,6-15.5
		c2.2-1,4.6-1.3,7-1c0,15,0,30,0,45c-2.4,0.3-4.8,0-7-1c-1.6-5-3.1-10-4.5-15c-0.8-0.6-1.6-1.1-2.5-1.5c-14.3-0.5-28.7-0.7-43-0.5
		c0,21,0.3,42,1,63c20.7-0.1,41.3,0.3,62,1c3.9-9.4,8.5-18.4,14-27c1.9-1,3.9-1.3,6-1c-0.5,12.7-1.5,25.4-3,38c-2.7,0.3-5.3,0.7-8,1
		c-38.6-1.8-77.3-2.8-116-3c-0.2-2,0.1-3.8,1-5.5c4.3-1,8.7-2,13-3c1.8-0.3,3.3-1.1,4.5-2.5c0.7-42.3,0.7-84.7,0-127
		c-5.8-2.6-12-4.3-18.5-5c0-1.7,0-3.3,0-5C799.7,14.7,835.7,13,871.5,10.5z"/>
</g>
<path class="st0" d="M498.5,18c-32.3-0.5-64.7-0.7-97-0.5c-0.2,1.6,0.1,3.1,1,4.5c6.1,1.2,11.9,3.1,17.5,5.5
	c0.7,41.3,0.7,82.7,0,124c-5.9,2.5-12.1,4.2-18.5,5c0,1.7,0,3.3,0,5c29.3,0.2,58.7,0,88-0.5c20.1-0.9,38.4-6.9,55-18
	c9.4-7.4,16.6-16.6,21.5-27.5C583.1,55.8,560.6,23.3,498.5,18z M490.5,152c-14.3,1.8-28.7,2-43,0.5c-1.3-42-1.3-84,0-126
	c16-0.4,32,0.1,48,1.5c33.7,5.7,49.7,25.7,48,60C544.9,125.3,527.2,146.6,490.5,152z"/>
<path class="st0" d="M178,157.5c-3-2.4-5.4-5.4-7-9c-20.3-48.3-39.4-96.9-57.5-146c-5,0-10,0.3-15,1c-23,51.7-45.9,103.7-68.5,156
	c-5.8,5.3-12.6,8.7-20.5,10c0,2,0,4,0,6c18.3-1.1,36.7-2.1,55-3c0-2,0-4,0-6c-5.4-0.7-10.7-1.7-16-3c-0.4-6.3,0.8-12.3,3.5-18
	c5.6-11.7,10.4-23.7,14.5-36c21-0.3,42,0,63,1c6,14.6,11.4,29.4,16,44.5c-0.1,1.4-0.4,2.8-1,4c-4.8,2.2-9.8,3.7-15,4.5c0,2,0,4,0,6
	c18-1.1,36-1.8,54-2c3.5-1,7.1-1.3,11-1c0-1.7,0-3.3,0-5C188.9,160.7,183.4,159.4,178,157.5z M97.5,98.5c-8.2-0.3-16.2-1.3-24-3
	c7.9-20.7,16.5-41.1,26-61c8.5,20.9,16.9,41.9,25,63C115.5,98.5,106.5,98.8,97.5,98.5z"/>
<path class="st0" d="M1080.5,170.5c-4.4-2-8.9-3.6-13.5-5c-3.7-2.1-6.4-5.1-8-9c-19.9-52.1-40-104.1-60.5-156c-4.4,1.1-8.8,2.4-13,4
	c-21.6,48.6-43.8,96.9-66.5,145c-1.5,2.2-3,4.3-4.5,6.5c-6,2.9-12.4,4.8-19,5.5c0,2,0,4,0,6c18.7-0.2,37.4,0.4,56,2c0-2,0-4,0-6
	c-4.7-1-9.4-2.4-14-4c-2-0.8-3-2.3-3-4.5c5.1-14.9,11.1-29.4,18-43.5c0-1,0-2,0-3c15.8-0.3,31.5,0,47,1c5.4-0.3,10.7,0,16,1
	c6.3,15.8,11.9,31.8,17,48c-0.5,1.4-1.1,2.8-2,4c-4.8,2.1-9.8,3.4-15,4c0,2,0,4,0,6c22,0.7,44,1.7,66,3
	C1081.8,173.7,1081.4,172,1080.5,170.5z M987.5,98.5c-9.7,0.3-19.4,0-29-1c8.9-21.4,18-42.8,27.5-64c8.1,20.6,16,41.2,23.5,62
	C1002.4,97.2,995.1,98.2,987.5,98.5z"/>
<path class="st0" d="M730,146.5c-14.4-18.2-28.5-36.5-42.5-55c9.5-3.1,18.5-7.3,27-12.5c3.9-4.2,7.4-8.7,10.5-13.5
	c6.1-16.5,2.3-30-11.5-40.5c-16-6.6-32.7-9.4-50-8.5c-21.8,1.4-43.8,2.1-66,2c-0.3,2,0.4,3.5,2,4.5c5.6,1.3,11.1,2.8,16.5,4.5
	c1.1,20.8,1.6,41.6,1.5,62.5c-0.2,19.5-0.3,39-0.5,58.5c-0.3,1.3-0.8,2.4-1.5,3.5c-5.3,1.3-10.7,2.7-16,4c-0.9,1.4-1.2,2.9-1,4.5
	c20.7,0,41.3,0.3,62,1c0-1.7,0-3.3,0-5c-5.4-0.8-10.7-2-16-3.5c-0.6-0.8-1.1-1.6-1.5-2.5c-0.5-18.7-0.7-37.3-0.5-56
	c5.3-0.2,10.7,0,16,0.5c1.3,0.7,2.7,1.3,4,2c12,14.5,23.2,29.7,33.5,45.5c4.8,6.2,10.3,11.7,16.5,16.5c3.2,1.7,6.5,3.1,10,4
	c10.6,1.8,21.3,2,32,0.5c0-1.7,0-3.3,0-5C744.8,157.6,736.6,153.6,730,146.5z M642.5,86.5c0-20,0-40,0-60c4.5,0.3,8.9,0,13-1
	c11.9-0.4,23.2,1.7,34,6.5c5.6,4.4,8.8,10.3,9.5,17.5c2,23.4-8.9,35.5-32.5,36.5C658.5,86.5,650.5,86.7,642.5,86.5z"/>
<g>
	<path class="st0" d="M194.5,161.5c1,1.8,1.3,3.8,1,6c-4,0-8,0-12,0c3.5-1,7.1-1.3,11-1C194.5,164.8,194.5,163.2,194.5,161.5z"/>
</g>
<g>
	<path class="st0" d="M443.5,172.5c215.5-2.3,430.9,3.1,646,16c0,2,0,4,0,6c-251.3-9-502.6-11.5-754-7.5
		c-104.8,1.9-209.7,4.4-314.5,7.5c-6.2-0.3-12.3-0.7-18.5-1c-0.8-1.6-1.1-3.2-1-5C148.9,180.4,296.2,175.1,443.5,172.5z"/>
</g>
<g>
	<path class="st0" d="M1089.5,211.5c0,1.3,0,2.7,0,4c-253.3-9-506.6-11.5-760-7.5c-103.8,1.9-207.7,4.4-311.5,7.5
		c-5.7,0-11.2-0.7-16.5-2c0-1.3,0-2.7,0-4c109.6-6.3,219.3-10.8,329-13.5c251.9-6.7,503.5-2.2,755,13.5
		C1087.3,209.6,1088.7,210.3,1089.5,211.5z"/>
</g>
<g>
	<path class="st0" d="M389.5,228.5c8.4-0.3,16.7,0,25,1c-1.8,1.3-3.8,1.9-6,2c0,7,0,14,0,21c8,0,16,0,24,0c0-7,0-14,0-21
		c-2.2-0.1-4.2-0.7-6-2c8.3-1.3,16.7-1.3,25,0c-2.1,1.4-4.4,2.1-7,2c0,16.7,0,33.3,0,50c2.6-0.1,4.9,0.6,7,2c-8.3,1.3-16.7,1.3-25,0
		c1.8-1.3,3.8-1.9,6-2c0-8,0-16,0-24c-8,0-16,0-24,0c0,8,0,16,0,24c2.2,0.1,4.2,0.7,6,2c-8.3,1.3-16.7,1.3-25,0c2-1.7,4.3-2.3,7-2
		c0-16.7,0-33.3,0-50C393.4,231.8,391.1,230.8,389.5,228.5z"/>
</g>
<g>
	<path class="st0" d="M538.5,228.5c16.7,0,33.3,0,50,0c-0.7,5-1.3,10-2,15c-1,0-2,0-3,0c-0.5-3.7-1.2-7.4-2-11c-4,0-8,0-12,0
		c-0.2,16,0,32,0.5,48c2.5,1.1,5,2.1,7.5,3c-9,1.3-18,1.3-27,0c2.1-1.1,4.3-2.1,6.5-3c0.5-16,0.7-32,0.5-48c-4.1-0.3-8.1,0-12,1
		c-1.4,3.2-2.4,6.6-3,10c-1,0-2,0-3,0C539.7,238.5,539.3,233.5,538.5,228.5z"/>
</g>
<g>
	<path class="st0" d="M600.5,228.5c14,0,28,0,42,0c-0.5,5-1.8,9.6-4,14c-1.6-3.1-2.6-6.5-3-10c-5.3,0-10.7,0-16,0c0,7,0,14,0,21
		c3.7,0,7.3,0,11,0c0.3-2,0.7-4,1-6c1,0,2,0,3,0c0,5.7,0,11.3,0,17c-1,0-2,0-3,0c-0.2-2.4-0.5-4.7-1-7c-3.7,0-7.3,0-11,0
		c0,7.7,0,15.3,0,23c5.3,0.2,10.7,0,16-0.5c1.8-3.1,3.5-6.3,5-9.5c0.8-0.9,1.8-1.2,3-1c-0.7,5-1,10-1,15c-14,0.3-28,0-42-1
		c2.1-1.1,4.3-2.1,6.5-3c0.7-16,0.7-32,0-48C604.3,231.8,602.1,230.5,600.5,228.5z"/>
</g>
<g>
	<path class="st0" d="M658.5,228.5c8.4-0.3,16.7,0,25,1c-1.8,1.3-3.8,1.9-6,2c0,16.3,0,32.7,0,49c5,0.2,10,0,15-0.5
		c2-4.1,4.3-7.9,7-11.5c1,5.3,1.3,10.6,1,16c-14,0.3-28,0-42-1c1.8-1.3,3.8-1.9,6-2c0-16.7,0-33.3,0-50
		C661.8,231.6,659.8,230.6,658.5,228.5z"/>
</g>
<path class="st0" d="M492.5,226.5c-14.1,1.9-22.6,9.9-25.5,24c-2.4,21.7,7.1,33.7,28.5,36c17.7-0.2,28.2-8.8,31.5-26
	C528.4,236.4,516.9,225.1,492.5,226.5z M511,274.5c-6.8,8.8-15,10.2-24.5,4c-6.1-11.7-7.6-24-4.5-37c1.7-5.5,5.2-9.2,10.5-11
	c7.3-0.9,13.1,1.5,17.5,7C514.3,249.7,514.6,262,511,274.5z"/>
</svg>
